src/section/s1/reser.svg

<svg width="459" height="39" viewBox="0 0 459 39" fill="none" xmlns="http://www.w3.org/2000/svg">
<path d="M38.1603 34.5677V35.8777H0.300293V34.5677H12.8603C11.5103 26.6077 9.77028 18.9978 7.66028 11.7278H2.20026V10.4577H18.8703C18.1503 8.07773 17.3003 5.91775 16.3703 4.03775L17.8503 3.80774C18.7003 5.72774 19.5003 7.91773 20.2603 10.4577H36.2502V11.7278H30.6703C29.1503 20.3378 27.2003 27.9577 24.8703 34.5677H38.1503H38.1603ZM9.14026 11.7278C11.0403 18.4978 12.7803 26.1077 14.3003 34.5677H23.4402C25.6402 28.4877 27.5802 20.8778 29.1902 11.7278H9.14026Z" fill="white"/>
<path d="M44.3403 36.1378C44.8903 35.9878 45.1903 35.6778 45.1903 35.2878V5.63782H59.9904V22.4778H46.6204V35.5478C51.2704 34.3978 55.2903 33.1678 58.7203 31.8578C57.6603 30.1678 56.4803 28.4378 55.2103 26.6278L56.3503 25.9778C59.1003 29.8278 61.2103 33.2078 62.6503 36.1278L61.5103 36.8578C60.8803 35.5878 60.2003 34.3178 59.4403 33.0178C55.2103 34.6378 50.3004 36.0978 44.8104 37.3278L44.3503 36.1378H44.3403ZM58.5903 6.87781H46.6204V13.2978H58.5903V6.87781ZM46.6204 21.2178H58.5903V14.4878H46.6204V21.2178ZM71.4103 33.2578L71.0303 31.9478L75.3903 31.9878C76.5703 31.9878 77.1703 31.4478 77.1703 30.3678V6.87781H67.4403V38.5278H65.9603V5.6478H78.5604V30.6378C78.5604 32.3678 77.6703 33.2478 75.9003 33.2478H71.4203L71.4103 33.2578Z" fill="white"/>
<path d="M91.7202 13.7978C93.8402 11.7578 95.7002 9.48779 97.3002 6.98779H85.8802V5.75781H98.9102V6.79782C97.0502 9.79782 94.9302 12.4078 92.5702 14.6378C93.5402 15.5978 94.3902 16.5178 95.1502 17.4078H100.27V18.2578C99.5902 21.3378 98.7902 23.7178 97.9002 25.4078L96.7202 25.0278C97.6102 23.3378 98.3702 21.2178 98.9602 18.6878H92.7402V36.1478C92.7402 37.6878 91.8502 38.4978 90.1602 38.4978H86.3502L86.0502 37.2678C87.3202 37.3478 88.5002 37.3878 89.6502 37.3878C90.8002 37.3878 91.3402 36.8478 91.3402 35.8478V18.6978H84.4902V17.4278H93.5402C91.7602 15.4278 89.5602 13.2778 86.9002 11.0078L87.9602 10.3878C89.3102 11.5778 90.5802 12.7378 91.7202 13.8078V13.7978ZM110.16 32.8278C107.88 35.0178 105.13 36.9378 101.83 38.5978L100.98 37.6378C104.24 36.0178 106.99 34.1378 109.19 31.9878L110.16 32.8378V32.8278ZM110.03 11.2978C110.71 9.94782 111.17 8.5278 111.47 7.0278H102V5.79782H122.43V7.0278H112.91C112.57 8.5278 112.06 9.94782 111.47 11.2978H120.65V30.8278H103.82V11.2978H110.04H110.03ZM119.25 17.2978V12.4878H105.21V17.2978H119.25ZM119.25 23.3778V18.4978H105.21V23.3778H119.25ZM119.25 24.5678H105.21V29.6478H119.25V24.5678ZM122.93 37.5278L121.96 38.3778C120.1 36.6078 117.65 34.7278 114.56 32.7678L115.49 31.9578C118.45 33.8078 120.95 35.6478 122.93 37.5378V37.5278Z" fill="white"/>
<path d="M131.22 29.3378C130.92 32.7578 130.25 35.7978 129.15 38.4478L127.8 38.0978C128.9 35.5178 129.62 32.5578 129.92 29.1778L131.23 29.3278L131.22 29.3378ZM143.23 27.1078L141.92 27.4178C141.67 26.6478 141.41 25.8778 141.16 25.1478C136.8 26.1478 132.57 26.8378 128.43 27.2278L128.05 25.9978C128.3 25.9178 128.52 25.8078 128.73 25.6478C131.18 23.6478 134.02 20.4178 137.23 15.9178C134.1 16.3778 131.1 16.7678 128.22 17.0678L127.88 15.8778C128.09 15.7578 128.3 15.6078 128.47 15.3778C131.35 12.1878 133.84 8.37779 135.96 3.91779L137.31 4.37778C134.77 9.25778 132.23 13.0678 129.7 15.7578C132.45 15.5278 135.24 15.1378 138.12 14.6778C139.18 13.1378 140.28 11.4878 141.42 9.71777L142.69 10.1778C137.53 17.9478 133.39 23.1778 130.17 25.9078C133.81 25.4478 137.32 24.8278 140.74 24.0578C140.15 22.4478 139.47 20.8678 138.71 19.3278L139.98 18.9478C141.16 21.3278 142.26 24.0278 143.24 27.0978L143.23 27.1078ZM137.77 37.2578L136.37 37.5278C136.03 34.4078 135.52 31.6478 134.93 29.2578L136.24 28.9878C136.79 31.5278 137.3 34.2578 137.76 37.2578H137.77ZM143.61 35.1378L142.38 35.6378C141.58 32.9478 140.73 30.5978 139.8 28.5978L140.98 28.2478C141.95 30.3978 142.84 32.6678 143.6 35.1278L143.61 35.1378ZM151.35 3.87778C150.76 6.29778 149.95 8.56777 148.98 10.6878H163.28C163.28 22.7278 163.07 30.1878 162.69 33.0278C162.27 36.4078 160.24 38.1078 156.56 38.1078C155.8 38.1078 154.53 38.0678 152.75 38.0678L152.37 36.8378C153.93 36.8378 155.29 36.8778 156.47 36.8778C159.26 36.8778 160.87 35.5278 161.29 32.8378C161.63 30.2978 161.8 23.3378 161.88 11.9978H148.3C146.95 14.5378 145.25 16.8378 143.22 18.8778L142.33 17.7978C146.05 13.9578 148.59 9.25778 149.9 3.72778L151.34 3.87778H151.35ZM156.09 27.6378L154.95 28.4078C153.13 25.7878 150.64 22.9078 147.46 19.7578L148.6 19.1078C151.86 22.3378 154.35 25.1878 156.09 27.6478V27.6378Z" fill="white"/>
<path d="M190.27 7.0578H437.4V0.687805L458.3 9.7478H190.27V7.0578Z" fill="white"/>
<path d="M200.3 36.4478L197.49 32.8578C197.17 32.8878 196.85 32.9078 196.51 32.9078H193.21V36.4478H191.91V25.2878H196.51C198.08 25.2878 199.3 25.6278 200.19 26.3078C201.08 26.9878 201.52 27.9278 201.52 29.1178C201.52 29.9878 201.28 30.7279 200.79 31.3279C200.3 31.9279 199.61 32.3578 198.71 32.6278L201.71 36.4578H200.29L200.3 36.4478ZM199.26 31.1678C199.9 30.6778 200.22 29.9978 200.22 29.1078C200.22 28.2178 199.9 27.5078 199.26 27.0278C198.62 26.5478 197.69 26.2979 196.47 26.2979H193.21V31.8978H196.47C197.69 31.8978 198.62 31.6478 199.26 31.1678Z" fill="white"/>
<path d="M227.31 35.4278V36.4478H218.63V25.2878H227.05V26.3078H219.93V30.2778H226.28V31.2778H219.93V35.4278H227.32H227.31Z" fill="white"/>
<path d="M245.16 36.1478C244.32 35.8778 243.68 35.5278 243.22 35.0978L243.73 34.1878C244.17 34.5878 244.77 34.9178 245.5 35.1678C246.24 35.4178 247 35.5478 247.78 35.5478C248.88 35.5478 249.7 35.3678 250.25 34.9978C250.8 34.6278 251.07 34.1578 251.07 33.5678C251.07 33.1178 250.92 32.7678 250.62 32.4978C250.32 32.2278 249.96 32.0278 249.52 31.8878C249.09 31.7478 248.48 31.5878 247.71 31.4178C246.79 31.2078 246.05 30.9978 245.5 30.8078C244.95 30.6078 244.48 30.3078 244.09 29.9078C243.7 29.5078 243.5 28.9578 243.5 28.2678C243.5 27.7078 243.66 27.1878 243.99 26.7278C244.32 26.2678 244.82 25.8978 245.5 25.6178C246.18 25.3378 247.02 25.1978 248.03 25.1978C248.73 25.1978 249.42 25.2878 250.09 25.4578C250.76 25.6278 251.34 25.8778 251.84 26.1878L251.4 27.1278C250.89 26.8178 250.34 26.5878 249.75 26.4378C249.16 26.2878 248.59 26.2078 248.03 26.2078C246.95 26.2078 246.14 26.3978 245.6 26.7778C245.06 27.1578 244.78 27.6378 244.78 28.2378C244.78 28.6878 244.93 29.0478 245.23 29.3178C245.53 29.5878 245.9 29.7978 246.35 29.9378C246.8 30.0778 247.41 30.2378 248.17 30.4078C249.07 30.6078 249.8 30.8078 250.35 31.0078C250.91 31.2078 251.38 31.4978 251.76 31.8978C252.15 32.2978 252.34 32.8378 252.34 33.5178C252.34 34.0778 252.17 34.5978 251.84 35.0578C251.51 35.5178 250.99 35.8878 250.3 36.1578C249.61 36.4278 248.76 36.5678 247.76 36.5678C246.85 36.5678 245.97 36.4378 245.14 36.1678L245.16 36.1478Z" fill="white"/>
<path d="M277.91 35.4278V36.4478H269.23V25.2878H277.65V26.3078H270.53V30.2778H276.88V31.2778H270.53V35.4278H277.92H277.91Z" fill="white"/>
<path d="M303.38 36.4478L300.57 32.8578C300.25 32.8878 299.93 32.9078 299.59 32.9078H296.29V36.4478H294.99V25.2878H299.59C301.16 25.2878 302.38 25.6278 303.27 26.3078C304.16 26.9878 304.6 27.9278 304.6 29.1178C304.6 29.9878 304.36 30.7279 303.87 31.3279C303.38 31.9279 302.69 32.3578 301.79 32.6278L304.79 36.4578H303.37L303.38 36.4478ZM302.34 31.1678C302.98 30.6778 303.3 29.9978 303.3 29.1078C303.3 28.2178 302.98 27.5078 302.34 27.0278C301.7 26.5478 300.77 26.2979 299.55 26.2979H296.29V31.8978H299.55C300.77 31.8978 301.7 31.6478 302.34 31.1678Z" fill="white"/>
<path d="M331.92 25.2878L326.48 36.4478H325.2L319.76 25.2878H321.16L325.86 34.9878L330.6 25.2878H331.92Z" fill="white"/>
<path d="M355.06 33.4678H348.22L346.75 36.4478H345.4L351.01 25.2878H352.29L357.9 36.4478H356.53L355.06 33.4678ZM354.59 32.5078L351.64 26.5078L348.69 32.5078H354.58H354.59Z" fill="white"/>
<path d="M375.75 26.3078H371.43V25.2878H381.36V26.3078H377.04V36.4478H375.74V26.3078H375.75Z" fill="white"/>
<path d="M397.47 25.2878H398.77V36.4478H397.47V25.2878Z" fill="white"/>
<path d="M418.86 35.7978C417.87 35.2978 417.1 34.6278 416.54 33.7678C415.98 32.9078 415.71 31.9378 415.71 30.8678C415.71 29.7978 415.99 28.8278 416.54 27.9678C417.1 27.1078 417.87 26.4278 418.86 25.9378C419.85 25.4478 420.95 25.1978 422.17 25.1978C423.39 25.1978 424.48 25.4478 425.46 25.9278C426.44 26.4178 427.21 27.0978 427.77 27.9578C428.33 28.8278 428.61 29.7978 428.61 30.8678C428.61 31.9378 428.33 32.9078 427.77 33.7778C427.21 34.6478 426.44 35.3278 425.46 35.8078C424.48 36.2978 423.39 36.5378 422.17 36.5378C420.95 36.5378 419.85 36.2878 418.86 35.7978ZM424.8 34.8878C425.58 34.4878 426.2 33.9378 426.64 33.2278C427.08 32.5178 427.31 31.7278 427.31 30.8578C427.31 29.9878 427.09 29.1978 426.64 28.4878C426.2 27.7778 425.58 27.2278 424.8 26.8278C424.02 26.4278 423.14 26.2278 422.17 26.2278C421.2 26.2278 420.32 26.4278 419.53 26.8278C418.74 27.2278 418.12 27.7778 417.67 28.4878C417.22 29.1978 417 29.9878 417 30.8578C417 31.7278 417.22 32.5178 417.67 33.2278C418.12 33.9378 418.74 34.4878 419.53 34.8878C420.32 35.2878 421.2 35.4878 422.17 35.4878C423.14 35.4878 424.02 35.2878 424.8 34.8878Z" fill="white"/>
<path d="M455.82 25.2878V36.4478H454.75L446.86 27.3878V36.4478H445.56V25.2878H446.63L454.54 34.3478V25.2878H455.82Z" fill="white"/>
</svg>

<?xml version="1.0" encoding="utf-8"?>
<!-- Generator: Adobe Illustrator 26.5.0, SVG Export Plug-In . SVG Version: 6.00 Build 0)  -->
<svg version="1.1" id="圖層_1" xmlns="http://www.w3.org/2000/svg" xmlns:xlink="http://www.w3.org/1999/xlink" x="0px" y="0px"
	 viewBox="0 0 470 39" style="enable-background:new 0 0 470 39;" xml:space="preserve">
<style type="text/css">
	.st0{fill:#606060;}
	.st1{fill:#FFFFFF;}
</style>
<rect x="-53.7" y="-101.2" class="st0" width="650.6" height="267.7"/>
<path class="st1" d="M449.1,10V0.7L470,10"/>
<path class="st1" d="M190.3,10V7h259.3v3"/>
<path class="st1" d="M38.2,34.6v1.3H0.3v-1.3h12.6c-1.4-8-3.1-15.6-5.2-22.8H2.2v-1.3h16.7c-0.7-2.4-1.6-4.5-2.5-6.4l1.5-0.2
	c0.9,1.9,1.6,4.1,2.4,6.6h16v1.3h-5.6c-1.5,8.6-3.5,16.2-5.8,22.8H38.2L38.2,34.6z M9.1,11.7c1.9,6.8,3.6,14.4,5.2,22.8h9.1
	c2.2-6.1,4.1-13.7,5.8-22.8H9.1z M44.3,36.1c0.5-0.1,0.8-0.5,0.8-0.8V5.6H60v16.8H46.6v13.1c4.7-1.1,8.7-2.4,12.1-3.7
	c-1.1-1.7-2.2-3.4-3.5-5.2l1.1-0.6c2.8,3.9,4.9,7.2,6.3,10.1l-1.1,0.7c-0.6-1.3-1.3-2.5-2.1-3.8c-4.2,1.6-9.1,3.1-14.6,4.3
	L44.3,36.1L44.3,36.1z M58.6,6.9h-12v6.4h12V6.9z M46.6,21.2h12v-6.7h-12V21.2z M71.4,33.3L71,31.9l4.4,0c1.2,0,1.8-0.5,1.8-1.6V6.9
	h-9.7v31.6H66V5.6h12.6v25c0,1.7-0.9,2.6-2.7,2.6L71.4,33.3L71.4,33.3z M91.7,13.8c2.1-2,4-4.3,5.6-6.8H85.9V5.8h13v1
	c-1.9,3-4,5.6-6.3,7.8c1,1,1.8,1.9,2.6,2.8h5.1v0.8c-0.7,3.1-1.5,5.5-2.4,7.2L96.7,25c0.9-1.7,1.7-3.8,2.2-6.3h-6.2v17.5
	c0,2.5-1.3,2.3-6.4,2.3l-0.3-1.2c4.1,0.3,5.3,0.3,5.3-1.4V18.7h-6.9v-1.3h9.1c-1.8-2-4-4.1-6.6-6.4l1.1-0.6
	C89.3,11.6,90.6,12.7,91.7,13.8L91.7,13.8z M110.2,32.8c-2.3,2.2-5,4.1-8.3,5.8l-0.8-1c3.3-1.6,6-3.5,8.2-5.6L110.2,32.8L110.2,32.8
	z M110,11.3c0.7-1.3,1.1-2.8,1.4-4.3H102V5.8h20.4V7h-9.5c-0.3,1.5-0.9,2.9-1.4,4.3h9.2v19.5h-16.8V11.3H110L110,11.3z M119.2,17.3
	v-4.8h-14v4.8H119.2z M119.2,23.4v-4.9h-14v4.9H119.2z M119.2,24.6h-14v5.1h14V24.6z M122.9,37.5l-1,0.8c-1.9-1.8-4.3-3.7-7.4-5.6
	l0.9-0.8C118.4,33.8,120.9,35.6,122.9,37.5L122.9,37.5z M131.2,29.3c-0.3,3.4-1,6.5-2.1,9.1l-1.3-0.3c1.1-2.6,1.8-5.5,2.1-8.9
	L131.2,29.3L131.2,29.3z M143.2,27.1l-1.3,0.3c-0.2-0.8-0.5-1.5-0.8-2.3c-4.4,1-8.6,1.7-12.7,2.1l-0.4-1.2c3.2-2,5.6-5.3,9.2-10.1
	c-3.1,0.5-6.1,0.8-9,1.2l-0.3-1.2c3.3-3.2,5.8-7.3,8.1-12l1.3,0.5c-2.5,4.9-5.1,8.7-7.6,11.4c2.8-0.2,5.5-0.6,8.4-1.1
	c1.1-1.5,2.2-3.2,3.3-5l1.3,0.5c-5.2,7.8-9.3,13-12.5,15.7c3.6-0.5,7.2-1.1,10.6-1.9c-0.6-1.6-1.3-3.2-2-4.7l1.3-0.4
	C141.2,21.3,142.3,24,143.2,27.1L143.2,27.1z M137.8,37.3l-1.4,0.3c-0.3-3.1-0.8-5.9-1.4-8.3l1.3-0.3
	C136.8,31.5,137.3,34.3,137.8,37.3L137.8,37.3z M143.6,35.1l-1.2,0.5c-0.8-2.7-1.7-5-2.6-7l1.2-0.3
	C141.9,30.4,142.8,32.7,143.6,35.1L143.6,35.1z M151.4,3.9c-0.6,2.4-1.4,4.7-2.4,6.8h14.3c0,29,0,27.2-10.5,27.4l-0.4-1.2
	c9.4-0.3,9.6,1.6,9.5-24.8h-13.6c-1.4,2.5-3.1,4.8-5.1,6.9l-0.9-1.1c3.7-3.8,6.3-8.5,7.6-14.1L151.4,3.9L151.4,3.9z M156.1,27.6
	l-1.1,0.8c-1.8-2.6-4.3-5.5-7.5-8.7l1.1-0.6C151.9,22.3,154.4,25.2,156.1,27.6L156.1,27.6z M227.3,35.4v1h-8.7V25.3h8.4v1h-7.1v4
	h6.4v1h-6.4v4.1H227.3L227.3,35.4z M243.2,35.1l0.5-0.9c2.5,2,7.3,1.8,7.3-0.6c0-3.1-7.6-1.1-7.6-5.3c0-3.4,5.4-3.8,8.3-2.1
	l-0.4,0.9c-2.3-1.4-6.6-1.3-6.6,1.1c0,3.1,7.6,1.2,7.6,5.3C252.3,37.1,245.9,37.4,243.2,35.1z M277.9,35.4v1h-8.7V25.3h8.4v1h-7.1v4
	h6.4v1h-6.4v4.1H277.9L277.9,35.4z M303.4,36.4l-2.8-3.6c-0.7,0.1-3.6,0-4.3,0v3.5H295V25.3h4.6c6.4,0,6.1,6.4,2.2,7.3l3,3.8
	L303.4,36.4L303.4,36.4z M299.9,26.3h-3.6v5.6h3.6C304.4,31.9,304.4,26.3,299.9,26.3z M200.3,36.4l-2.8-3.6c-0.7,0.1-3.6,0-4.3,0
	v3.5h-1.3V25.3h4.6c6.4,0,6.1,6.4,2.2,7.3l3,3.8L200.3,36.4L200.3,36.4z M196.8,26.3h-3.6v5.6h3.6C201.3,31.9,201.3,26.3,196.8,26.3
	z M331.9,25.3l-5.4,11.2h-1.3l-5.4-11.2h1.4l4.7,9.7l4.7-9.7H331.9z M355.1,33.5h-6.8l-1.5,3h-1.4l5.6-11.2h1.3l5.6,11.2h-1.4
	L355.1,33.5z M351.6,26.5l-3,6h5.9L351.6,26.5z M371.4,26.3v-1h9.9v1H377v10.1h-1.3V26.3H371.4z M397.5,25.3h1.3v11.2h-1.3V25.3z
	 M422.2,25.2c8.6,0,8.6,11.3,0,11.3C413.6,36.5,413.6,25.2,422.2,25.2z M422.2,26.2c-6.9,0-6.9,9.3,0,9.3
	C429,35.5,429,26.2,422.2,26.2z M455.8,25.3v11.2h-1.1l-7.9-9.1v9.1h-1.3V25.3h1.1l7.9,9.1v-9.1H455.8z"/>
</svg>
